X: 3
T: The Lilting Fisherman
R: reel
M: 4/4
L: 1/8
K: Cmaj
G3 E GAcd | edcB cA A2 | GE ~E2 GAcd |1. edcB c3 A:|2. edcB c3 d ||eg ~g2 ea ~a2 | gede cA A2 | eg ~g2 ea ~a2 | gabg a3 g|eg ~g2 agea | gede cA A2 | GE ~E2 GAcd |1. edcB c3 d:|2. edcB c3 A ||


Tune 345	Setting 13144

